src/scalable/apps/gcompris-edit.svg

<svg width="64" height="64" version="1.1" viewBox="0 0 16.933 16.933" xmlns="http://www.w3.org/2000/svg">
 <circle cx="8.4665" cy="8.4665" r="7.1436" fill="#028e7d" stroke-width=".96296" style="paint-order:stroke markers fill"/>
 <circle cx="8.4665" cy="8.4665" r="6.0853" fill="#fff" opacity=".15" stroke-width=".8203" style="paint-order:stroke markers fill"/>
 <g transform="matrix(.22773 0 0 .22773 7.143 6.0182)" stroke-width="1.1618">
  <path d="m5.8116 2.7599c2.2456 0 4.0688 1.8232 4.0688 4.0688v18.442c0 2.2456-1.8232 4.0688-4.0688 4.0688s-4.0688-1.8232-4.0688-4.0688v-18.442c0-2.2456 1.8232-4.0688 4.0688-4.0688z" fill="#e4e4e4" style="isolation:isolate"/>
  <path d="m5.8116 5.845c0.96242 0 1.7438 0.78136 1.7438 1.7438v16.447c0 0.96241-0.78136 1.7438-1.7438 1.7438s-1.7438-0.78136-1.7438-1.7438v-16.447c0-0.96242 0.78136-1.7438 1.7438-1.7438z" fill="#fa512f" style="isolation:isolate"/>
  <path d="m9.2992-7.8381v5.5992l-3.4875 2.325-3.4875-2.325v-5.5912c-2.8274 1.3423-4.646 4.1898-4.6501 7.335 0 4.4943 3.6433 8.1376 8.1376 8.1376s8.1376-3.6433 8.1376-8.1376c-0.0016-3.1478-1.8202-5.9998-4.6501-7.3429z" fill="#fff" style="isolation:isolate"/>
 </g>
</svg>

<svg width="64" height="64" viewBox="0 0 16.933 16.933" xmlns="http://www.w3.org/2000/svg"><circle cx="8.466" cy="8.466" r="7.144" fill="#028e7d" style="paint-order:stroke markers fill"/><circle cx="8.466" cy="8.466" r="6.085" fill="#fff" opacity=".15" style="paint-order:stroke markers fill"/><g stroke-width="1.162"><path d="M5.812 2.76A4.07 4.07 0 0 1 9.88 6.829V25.27c0 2.245-1.823 4.069-4.068 4.069s-4.07-1.824-4.07-4.07V6.83a4.07 4.07 0 0 1 4.07-4.07z" fill="#e4e4e4" style="isolation:isolate" transform="translate(7.143 6.018) scale(.22773)"/><path d="M5.812 5.845c.962 0 1.743.781 1.743 1.744v16.447a1.745 1.745 0 0 1-3.487 0V7.589c0-.963.781-1.744 1.744-1.744z" fill="#fa512f" style="isolation:isolate" transform="translate(7.143 6.018) scale(.22773)"/><path d="M9.3-7.838v5.6L5.811.085 2.324-2.239V-7.83a8.134 8.134 0 0 0-4.65 7.335 8.138 8.138 0 1 0 16.275 0A8.134 8.134 0 0 0 9.3-7.838z" fill="#fff" style="isolation:isolate" transform="translate(7.143 6.018) scale(.22773)"/></g></svg>
